src/images/rellogo.svg

<svg width="250" height="57" viewBox="0 0 250 57" fill="none" xmlns="http://www.w3.org/2000/svg">
<path d="M10.3044 47.8872H5.39227C3.95617 47.8803 2.58167 47.3215 1.57085 46.3337C0.560034 45.3458 -0.0043987 44.0098 0.00160301 42.6192V33.1061V24.7079C-0.000534337 24.6787 -0.000534337 24.6495 0.00160301 24.6204L0.00160301 20.8038C0.00160301 20.3229 2.60213 17.7217 6.32232 14.4734L6.53451 14.7357C6.64361 14.883 6.76437 15.0219 6.8957 15.1511C8.03341 16.1738 9.25157 17.1093 10.5391 17.949C10.7006 18.7562 11.0953 19.5025 11.6773 20.1012C12.2593 20.6999 13.0048 21.1264 13.8271 21.3312C14.6495 21.536 15.5149 21.5106 16.323 21.2582C17.1311 21.0057 17.8486 20.5364 18.3922 19.9048C18.9359 19.2732 19.2833 18.5052 19.3942 17.69C19.5051 16.8749 19.3749 16.046 19.0187 15.2996C18.6625 14.5532 18.0949 13.92 17.382 13.4735C16.669 13.027 15.8398 12.7856 14.9907 12.7772C14.7213 12.7786 14.4525 12.802 14.1871 12.8471C13.2294 12.2127 12.3127 11.5221 11.4421 10.7793C11.3801 10.7177 11.3228 10.652 11.2705 10.5825C11.2389 10.5432 11.2073 10.4995 11.1757 10.4645C11.7085 10.0273 12.1238 9.72128 12.4805 9.4546H12.5031C13.7401 8.51903 14.3587 8.04688 14.9862 8.04688C15.6138 8.04688 16.2007 8.48406 17.501 9.47209C21.7945 12.7378 29.9076 19.3087 29.9031 20.7863V42.6454C29.9091 44.0353 29.3453 45.3707 28.3354 46.3584C27.3256 47.3461 25.9523 47.9053 24.5169 47.9134H20.0022L17.2933 38.3567C18.3258 37.8835 19.1613 37.0841 19.6622 36.09C20.1631 35.0958 20.2995 33.9662 20.0491 32.8869C19.7987 31.8077 19.1764 30.8431 18.2845 30.152C17.3926 29.4608 16.2843 29.0843 15.142 29.0843C13.9996 29.0843 12.8913 29.4608 11.9995 30.152C11.1076 30.8431 10.4852 31.8077 10.2348 32.8869C9.98441 33.9662 10.1209 35.0958 10.6218 36.09C11.1227 37.0841 11.9581 37.8835 12.9907 38.3567L10.2818 47.9134L10.3044 47.8872Z" fill="black"/>
<path d="M14.6227 18.5488C14.3129 18.5486 14.01 18.4605 13.7514 18.2953C13.3225 18.0155 9.51648 15.5498 8.09432 14.1683C4.48248 10.6708 4.38767 5.09678 7.86858 1.72611C9.17787 0.458281 11.4804 -0.765827 14.9794 0.598179C16.8711 1.33264 18.9073 2.74911 21.0292 4.80386C22.4875 6.21596 23.851 6.89359 24.9797 6.77992C25.7675 6.65944 26.4738 6.24122 26.9436 5.61702C27.0562 5.44823 27.2021 5.30258 27.3729 5.18838C27.5437 5.07418 27.736 4.99368 27.9389 4.95146C28.1418 4.90924 28.3513 4.90613 28.5555 4.94232C28.7596 4.9785 28.9544 5.05327 29.1287 5.16235C29.3031 5.27143 29.4535 5.41269 29.5714 5.57806C29.6893 5.74344 29.7725 5.92968 29.8161 6.12617C29.8597 6.32265 29.8629 6.52553 29.8255 6.72321C29.7881 6.9209 29.7109 7.10952 29.5983 7.27831C29.1112 7.97224 28.4772 8.55796 27.7386 8.99662C26.9999 9.43529 26.1733 9.71687 25.3137 9.82271C23.1782 10.0457 20.9795 9.08387 18.7944 6.96791C16.9885 5.21919 15.2728 4.00819 13.801 3.43549C11.7423 2.62233 10.7535 3.26061 10.1034 3.89015C7.84601 6.07606 7.95436 9.70904 10.3291 12.0042C11.3495 12.9923 14.3925 15.0427 15.5031 15.7465C15.7851 15.929 15.999 16.1945 16.1131 16.5038C16.2273 16.8132 16.2356 17.1498 16.1369 17.464C16.0382 17.7783 15.8376 18.0534 15.565 18.2488C15.2923 18.4441 14.9619 18.5493 14.6227 18.5488Z" fill="black"/>
<path d="M65.2246 47.0905H57.3733L52.6554 39.5316C52.3032 38.9545 51.9646 38.443 51.6395 37.9927C51.3456 37.5805 51.0163 37.193 50.6553 36.8342C50.3538 36.534 50.0029 36.2843 49.6169 36.0953C49.2512 35.9238 48.8494 35.837 48.4431 35.8418H46.601V47.0905H39.7656V17.7031H50.6011C57.9663 17.7031 61.6488 20.367 61.6488 25.6948C61.659 26.6623 61.494 27.6241 61.1613 28.5365C60.8512 29.3867 60.3931 30.1792 59.8068 30.8798C59.1968 31.5909 58.4709 32.2008 57.6578 32.6853C56.7845 33.2053 55.8409 33.6055 54.8541 33.8745V33.9575C55.3269 34.1042 55.7698 34.329 56.1634 34.622C56.6059 34.9434 57.0169 35.3034 57.3914 35.6975C57.7937 36.1142 58.172 36.5521 58.5246 37.0091C58.8858 37.4812 59.2109 37.9446 59.5088 38.3949L65.2246 47.0905ZM46.601 22.6651V30.8404H49.5673C50.8656 30.8994 52.1352 30.4576 53.0978 29.6119C53.5361 29.2176 53.8834 28.738 54.1168 28.2046C54.3503 27.6711 54.4646 27.0959 54.4523 26.5167C54.4523 23.9461 52.8661 22.6622 49.6937 22.6651H46.601Z" fill="black"/>
<path d="M85.3573 38.4388H71.217C71.4427 41.4844 73.4247 43.0073 77.163 43.0073C79.3779 43.053 81.5602 42.4841 83.4521 41.3679V46.0413C81.4475 47.0818 78.844 47.6006 75.6415 47.5977C72.144 47.5977 69.4276 46.6592 67.4923 44.7823C65.5569 42.9053 64.5907 40.2822 64.5938 36.913C64.5938 33.4155 65.6382 30.6555 67.727 28.6328C68.7254 27.6383 69.9244 26.8534 71.2494 26.3269C72.5745 25.8004 73.9973 25.5436 75.4293 25.5725C78.5896 25.5725 81.0337 26.4804 82.7613 28.2961C84.489 30.1119 85.3543 32.5791 85.3573 35.6976V38.4388ZM79.154 34.4648C79.154 31.457 77.8989 29.9531 75.3887 29.9531C74.8529 29.9579 74.3251 30.0782 73.8433 30.305C73.3615 30.5318 72.9378 30.8596 72.603 31.2646C71.7996 32.1711 71.3017 33.2939 71.1763 34.4823L79.154 34.4648Z" fill="black"/>
<path d="M95.6745 44.6462H95.5888V47.0856H88.9023V16.0195H95.5888V29.2574H95.6745C96.4086 28.0964 97.4478 27.145 98.6861 26.5006C99.9244 25.8561 101.317 25.5417 102.722 25.5894C105.512 25.5894 107.663 26.5192 109.174 28.3786C110.685 30.2381 111.437 32.7782 111.431 35.9987C111.431 39.4962 110.549 42.3043 108.786 44.4232C107.947 45.4528 106.87 46.2767 105.642 46.8282C104.414 47.3796 103.068 47.643 101.715 47.5971C99.0576 47.5971 97.044 46.6135 95.6745 44.6462ZM95.4849 35.7932V37.9486C95.4391 39.1743 95.8692 40.3722 96.6904 41.3061C97.0694 41.7367 97.5429 42.0798 98.0764 42.3105C98.6099 42.5412 99.1899 42.6536 99.774 42.6395C100.466 42.668 101.154 42.5261 101.774 42.2272C102.393 41.9282 102.925 41.482 103.318 40.9301C104.158 39.7905 104.578 38.1744 104.578 36.0818C104.578 34.3331 104.194 32.9778 103.426 32.016C103.042 31.5313 102.541 31.1443 101.968 30.8884C101.395 30.6326 100.766 30.5154 100.135 30.5471C99.5029 30.534 98.8755 30.6579 98.299 30.9098C97.7226 31.1617 97.2115 31.5351 96.8032 32.0029C95.8893 33.062 95.4189 34.4145 95.4849 35.7932Z" fill="black"/>
<path d="M132.962 47.0861H126.642V44.0739H126.56C125.927 45.1829 124.988 46.0996 123.848 46.7218C122.708 47.344 121.412 47.6472 120.104 47.5976C117.997 47.5976 116.342 47.0147 115.138 45.8488C113.934 44.683 113.332 43.1427 113.332 41.2278C113.332 37.1475 115.823 34.7983 120.804 34.1805L126.673 33.4198C126.673 31.126 125.39 29.9791 122.822 29.9791C120.191 29.9929 117.624 30.7712 115.454 32.2131V27.3517C116.671 26.7946 117.954 26.3821 119.274 26.1232C120.728 25.7867 122.216 25.6078 123.712 25.5898C129.894 25.5898 132.983 28.5743 132.98 34.5433L132.962 47.0861ZM126.678 38.561V37.1577L122.741 37.6473C120.568 37.9242 119.481 38.8743 119.481 40.4977C119.471 40.8378 119.536 41.176 119.673 41.4892C119.81 41.8024 120.016 42.0831 120.276 42.312C120.872 42.8057 121.642 43.0578 122.425 43.0159C123 43.0345 123.572 42.9315 124.101 42.714C124.631 42.4965 125.105 42.1699 125.49 41.7568C126.297 40.8798 126.723 39.7347 126.678 38.561Z" fill="black"/>
<path d="M150.914 46.8406C149.93 47.3477 148.44 47.5969 146.449 47.5969C141.742 47.5969 139.387 45.2274 139.384 40.4883V30.8703H135.871V26.1007H139.384V21.5715L146.047 19.7266V26.1007H150.914V30.8747H146.047V39.3429C146.047 41.5288 146.95 42.6218 148.756 42.6218C149.522 42.6055 150.271 42.4009 150.932 42.0272L150.914 46.8406Z" fill="black"/>
<path d="M173.546 38.4387H159.41C159.636 41.4844 161.618 43.0073 165.356 43.0073C167.57 43.0523 169.75 42.4835 171.641 41.3678V46.0413C169.636 47.0818 167.033 47.6006 163.83 47.5977C160.333 47.5977 157.624 46.6592 155.704 44.7822C153.783 42.9052 152.816 40.2822 152.801 36.913C152.801 33.4155 153.845 30.6554 155.934 28.6327C156.933 27.6384 158.132 26.8537 159.457 26.3272C160.782 25.8007 162.204 25.5438 163.636 25.5725C166.797 25.5725 169.242 26.4803 170.973 28.2961C172.704 30.1119 173.561 32.5849 173.546 35.7151V38.4387ZM167.343 34.4647C167.343 31.4569 166.088 29.953 163.578 29.953C163.043 29.9585 162.516 30.0791 162.035 30.3059C161.554 30.5327 161.131 30.8602 160.796 31.2646C159.997 32.1664 159.499 33.2825 159.37 34.4647H167.343Z" fill="black"/>
<path d="M204.646 47.0865H196.014L187.165 34.3209C186.857 33.8011 186.589 33.2605 186.361 32.7033H186.257V47.0865H179.422V17.6992H186.257V31.5928H186.361C186.533 31.2125 186.813 30.666 187.21 29.9534L195.589 17.7123H203.716L193.156 31.7196L204.646 47.0865Z" fill="black"/>
<path d="M225.503 38.4388H211.367C211.59 41.4845 213.572 43.0073 217.313 43.0073C219.527 43.0524 221.707 42.4835 223.598 41.3679V46.0413C221.593 47.0818 218.99 47.6006 215.787 47.5977C212.29 47.5977 209.581 46.6592 207.661 44.7823C205.741 42.9053 204.773 40.2822 204.758 36.913C204.758 33.4155 205.802 30.6555 207.891 28.6328C208.889 27.6383 210.088 26.8534 211.413 26.3269C212.739 25.8004 214.161 25.5436 215.593 25.5725C218.754 25.5725 221.199 26.4804 222.93 28.2961C224.661 30.1119 225.524 32.5791 225.521 35.6976L225.503 38.4388ZM219.3 34.4648C219.3 31.457 218.045 29.9531 215.535 29.9531C215 29.9586 214.473 30.0791 213.992 30.3059C213.511 30.5328 213.088 30.8602 212.753 31.2646C211.949 32.1707 211.449 33.2935 211.322 34.4823L219.3 34.4648Z" fill="black"/>
<path d="M249.666 26.1059L240.862 48.7738C238.755 54.2211 235.568 56.9462 231.3 56.9491C229.945 56.9864 228.594 56.8062 227.3 56.4157V51.2526C228.178 51.7531 229.179 52.0144 230.198 52.0089C230.983 52.0502 231.76 51.8424 232.412 51.4172C233.064 50.9919 233.555 50.3724 233.81 49.6525L234.952 47.0513L226.148 26.1059H233.553L237.616 38.876C237.897 39.7933 238.094 40.7323 238.207 41.6827H238.293C238.448 40.744 238.675 39.8176 238.97 38.911L243.056 26.1016L249.666 26.1059Z" fill="black"/>
</svg>

<svg width="250" height="57" viewBox="0 0 250 57" fill="none" xmlns="http://www.w3.org/2000/svg"><path d="M10.304 47.887H5.392a5.507 5.507 0 0 1-3.821-1.553A5.162 5.162 0 0 1 0 42.619V24.708a.598.598 0 0 1 0-.088v-3.816c0-.481 2.601-3.082 6.321-6.33l.213.262c.109.147.23.286.36.415a29.8 29.8 0 0 0 3.644 2.798 4.299 4.299 0 0 0 1.138 2.152 4.52 4.52 0 0 0 2.15 1.23 4.63 4.63 0 0 0 2.496-.073 4.497 4.497 0 0 0 2.07-1.353 4.28 4.28 0 0 0 1.001-2.215 4.223 4.223 0 0 0-.375-2.39 4.39 4.39 0 0 0-1.637-1.827 4.594 4.594 0 0 0-2.391-.696 4.95 4.95 0 0 0-.804.07 28.351 28.351 0 0 1-2.745-2.068 1.82 1.82 0 0 1-.171-.197c-.032-.039-.064-.083-.095-.118.533-.437.948-.743 1.304-1.01h.023c1.237-.935 1.856-1.407 2.483-1.407.628 0 1.215.437 2.515 1.425 4.293 3.266 12.407 9.837 12.402 11.314v21.86a5.162 5.162 0 0 1-1.568 3.712 5.507 5.507 0 0 1-3.818 1.555h-4.515l-2.709-9.556a4.956 4.956 0 0 0 2.37-2.267c.5-.994.636-2.124.386-3.203a4.852 4.852 0 0 0-1.764-2.735 5.133 5.133 0 0 0-3.143-1.068c-1.142 0-2.25.377-3.143 1.068a4.852 4.852 0 0 0-1.764 2.735 4.731 4.731 0 0 0 .387 3.203 4.956 4.956 0 0 0 2.369 2.267l-2.71 9.556.023-.026z" fill="#000"/><path d="M14.623 18.549c-.31 0-.613-.088-.872-.254-.428-.28-4.235-2.745-5.657-4.127-3.612-3.497-3.706-9.071-.225-12.442C9.178.458 11.48-.766 14.979.598c1.892.735 3.928 2.151 6.05 4.206 1.459 1.412 2.822 2.09 3.95 1.976a3.028 3.028 0 0 0 1.965-1.163c.112-.169.258-.314.429-.429a1.608 1.608 0 0 1 1.182-.246c.205.037.4.111.574.22.174.11.324.25.442.416a1.507 1.507 0 0 1 .255 1.145 1.504 1.504 0 0 1-.228.555 6.034 6.034 0 0 1-1.86 1.719 6.245 6.245 0 0 1-2.424.826c-2.136.223-4.334-.74-6.52-2.855-1.806-1.749-3.521-2.96-4.993-3.533-2.059-.813-3.047-.174-3.698.455-2.257 2.186-2.149 5.819.226 8.114 1.02.988 4.063 3.039 5.174 3.742.282.183.496.449.61.758.114.31.123.646.024.96-.099.314-.3.59-.572.785-.273.195-.603.3-.942.3zM65.225 47.09h-7.852l-4.718-7.558a23.943 23.943 0 0 0-1.016-1.54 9.003 9.003 0 0 0-.984-1.158c-.301-.3-.652-.55-1.038-.739a2.691 2.691 0 0 0-1.174-.253h-1.842V47.09h-6.835V17.703H50.6c7.365 0 11.048 2.664 11.048 7.992.01.967-.155 1.93-.488 2.841a7.836 7.836 0 0 1-1.354 2.344 8.691 8.691 0 0 1-2.15 1.805c-.872.52-1.816.92-2.803 1.19v.083c.473.146.916.371 1.31.664.442.321.853.681 1.227 1.075.403.417.781.855 1.134 1.312.36.472.686.936.984 1.386l5.716 8.695zM46.6 22.665v8.175h2.966a5.009 5.009 0 0 0 3.53-1.228 4.111 4.111 0 0 0 1.02-1.407 3.996 3.996 0 0 0 .335-1.688c0-2.57-1.586-3.855-4.758-3.852H46.6zM85.357 38.439h-14.14c.226 3.045 2.208 4.568 5.946 4.568a11.903 11.903 0 0 0 6.29-1.64v4.674c-2.005 1.04-4.609 1.56-7.812 1.557-3.497 0-6.213-.939-8.149-2.816-1.935-1.877-2.901-4.5-2.898-7.869 0-3.497 1.044-6.257 3.133-8.28a10.464 10.464 0 0 1 3.522-2.306 10.739 10.739 0 0 1 4.18-.755c3.16 0 5.605.908 7.332 2.724 1.728 1.816 2.593 4.283 2.596 7.402v2.74zm-6.203-3.974c0-3.008-1.255-4.512-3.765-4.512a3.708 3.708 0 0 0-1.546.352 3.593 3.593 0 0 0-1.24.96 5.763 5.763 0 0 0-1.427 3.217l7.978-.017zM95.674 44.646h-.085v2.44h-6.687V16.02h6.687v13.237h.085a7.837 7.837 0 0 1 3.012-2.756 8.149 8.149 0 0 1 4.036-.912c2.79 0 4.941.93 6.452 2.79 1.511 1.86 2.263 4.4 2.257 7.62 0 3.497-.882 6.305-2.645 8.424a8.593 8.593 0 0 1-3.144 2.405 8.862 8.862 0 0 1-3.927.77c-2.657 0-4.671-.984-6.04-2.952zm-.19-8.853v2.156a4.81 4.81 0 0 0 1.206 3.357c.38.43.853.774 1.386 1.005.534.23 1.114.343 1.698.328a4.21 4.21 0 0 0 2-.412 4.062 4.062 0 0 0 1.544-1.297c.84-1.14 1.26-2.756 1.26-4.848 0-1.749-.384-3.104-1.152-4.066a3.873 3.873 0 0 0-1.458-1.128 4.006 4.006 0 0 0-1.833-.34 4.363 4.363 0 0 0-1.836.362 4.234 4.234 0 0 0-1.496 1.093 5.402 5.402 0 0 0-1.318 3.79zM132.962 47.086h-6.32v-3.012h-.082a6.948 6.948 0 0 1-2.712 2.648 7.247 7.247 0 0 1-3.744.876c-2.107 0-3.762-.583-4.966-1.75-1.204-1.165-1.806-2.705-1.806-4.62 0-4.08 2.491-6.43 7.472-7.047l5.869-.761c0-2.294-1.283-3.44-3.851-3.44a13.45 13.45 0 0 0-7.368 2.233v-4.861c1.217-.557 2.5-.97 3.82-1.229a20.793 20.793 0 0 1 4.438-.533c6.182 0 9.271 2.984 9.268 8.953l-.018 12.543zm-6.284-8.525v-1.403l-3.937.49c-2.173.276-3.26 1.226-3.26 2.85-.01.34.055.678.192.991.137.313.343.594.603.823a3.112 3.112 0 0 0 2.149.704 4.064 4.064 0 0 0 1.676-.302 3.944 3.944 0 0 0 1.389-.957 4.465 4.465 0 0 0 1.188-3.196zM150.914 46.84c-.984.508-2.474.757-4.465.757-4.707 0-7.062-2.37-7.065-7.109V30.87h-3.513V26.1h3.513v-4.529l6.663-1.844V26.1h4.867v4.774h-4.867v8.468c0 2.186.903 3.279 2.709 3.279a4.624 4.624 0 0 0 2.176-.595l-.018 4.814zM173.546 38.439H159.41c.226 3.045 2.208 4.568 5.946 4.568a11.9 11.9 0 0 0 6.285-1.64v4.674c-2.005 1.04-4.608 1.56-7.811 1.557-3.497 0-6.206-.939-8.126-2.816-1.921-1.877-2.888-4.5-2.903-7.869 0-3.497 1.044-6.258 3.133-8.28a10.474 10.474 0 0 1 3.523-2.306 10.738 10.738 0 0 1 4.179-.755c3.161 0 5.606.908 7.337 2.724 1.731 1.816 2.588 4.289 2.573 7.42v2.723zm-6.203-3.974c0-3.008-1.255-4.512-3.765-4.512a3.71 3.71 0 0 0-1.543.353 3.603 3.603 0 0 0-1.239.959 5.77 5.77 0 0 0-1.426 3.2h7.973zM204.646 47.087h-8.632l-8.849-12.766c-.308-.52-.576-1.06-.804-1.618h-.104v14.383h-6.835V17.7h6.835v13.894h.104c.172-.38.452-.927.849-1.64l8.379-12.24h8.127l-10.56 14.007 11.49 15.367zM225.503 38.439h-14.136c.223 3.045 2.205 4.568 5.946 4.568a11.9 11.9 0 0 0 6.285-1.64v4.674c-2.005 1.04-4.608 1.56-7.811 1.557-3.497 0-6.206-.939-8.126-2.816-1.92-1.877-2.888-4.5-2.903-7.869 0-3.497 1.044-6.257 3.133-8.28a10.458 10.458 0 0 1 3.522-2.306 10.743 10.743 0 0 1 4.18-.755c3.161 0 5.606.908 7.337 2.724 1.731 1.816 2.594 4.283 2.591 7.402l-.018 2.74zm-6.203-3.974c0-3.008-1.255-4.512-3.765-4.512a3.71 3.71 0 0 0-1.543.353 3.604 3.604 0 0 0-1.239.959 5.773 5.773 0 0 0-1.431 3.217l7.978-.017zM249.666 26.106l-8.804 22.668c-2.107 5.447-5.294 8.172-9.562 8.175a12.643 12.643 0 0 1-4-.533v-5.163c.878.5 1.879.761 2.898.756a3.7 3.7 0 0 0 2.214-.592 3.512 3.512 0 0 0 1.398-1.764l1.142-2.602-8.804-20.945h7.405l4.063 12.77c.281.917.478 1.856.591 2.807h.086c.155-.939.382-1.865.677-2.772l4.086-12.81 6.61.005z" fill="#000"/></svg>
